resources/assets/icons/moon-stars.svg

<svg viewBox="0 0 16 16" fill="none" xmlns="http://www.w3.org/2000/svg">
<path fill-rule="evenodd" clip-rule="evenodd" d="M12.4309 5.78461C12.4242 7.52368 13.2727 8.51248 15.2001 8.55384C13.4108 8.54719 12.5217 9.50719 12.4309 11.3231C12.4153 9.60984 11.6481 8.55162 9.66162 8.55384C11.4391 8.52873 12.4242 7.67138 12.4309 5.78461Z" stroke="currentColor" stroke-width="1.28" stroke-linecap="round" stroke-linejoin="round" fill="none"/>
<path fill-rule="evenodd" clip-rule="evenodd" d="M6.36284 0.799988C6.35324 3.2502 7.54807 4.63999 10.2634 4.70128C7.74302 4.69168 6.49059 6.0438 6.36284 8.60183C6.34142 6.18854 5.25958 4.69759 2.46155 4.70128C4.96493 4.66583 6.35324 3.45771 6.36284 0.799988Z" stroke="currentColor" stroke-width="1.28" stroke-linecap="round" stroke-linejoin="round" fill="none"/>
<path d="M10.2893 13.0688C8.94465 14.8842 6.59121 15.6386 4.44175 14.9432C2.29229 14.2479 0.826629 12.258 0.800059 9.999C0.798003 8.97106 1.1041 7.96609 1.67883 7.11383" stroke="currentColor" stroke-width="1.28" stroke-linecap="round" stroke-linejoin="round" fill="none"/>
</svg>

<svg viewBox="0 0 16 16" fill="none" xmlns="http://www.w3.org/2000/svg"><path clip-rule="evenodd" d="M12.43 5.785c-.006 1.739.843 2.727 2.77 2.769-1.79-.007-2.678.953-2.77 2.77-.015-1.714-.782-2.772-2.768-2.77 1.777-.025 2.762-.883 2.769-2.77ZM6.363.8c-.01 2.45 1.185 3.84 3.9 3.901-2.52-.01-3.772 1.343-3.9 3.9-.022-2.412-1.103-3.903-3.901-3.9C4.965 4.666 6.353 3.458 6.362.8Z" stroke="currentColor" stroke-width="1.28" stroke-linecap="round" stroke-linejoin="round"/><path d="M10.29 13.069A5.261 5.261 0 0 1 .8 9.999a5.142 5.142 0 0 1 .879-2.885" stroke="currentColor" stroke-width="1.28" stroke-linecap="round" stroke-linejoin="round"/></svg>
